svgs/duotone/rectangle-ad.svg

<svg xmlns="http://www.w3.org/2000/svg" viewBox="0 0 576 512"><!-- Font Awesome Pro 6.0.0-alpha2 by @fontawesome - https://fontawesome.com License - https://fontawesome.com/license (Commercial License) --><defs><style>.fa-secondary{opacity:.4}</style></defs><path d="M186.836 280H229.164L208 237.672L186.836 280ZM512 32H64C28.654 32 0 60.652 0 96V416C0 451.346 28.654 480 64 480H512C547.346 480 576 451.346 576 416V96C576 60.652 547.346 32 512 32ZM290.719 349.469C287.281 351.188 283.625 352 280.031 352C271.219 352 262.75 347.141 258.531 338.734L249.164 320H166.836L157.469 338.734C151.562 350.594 137.156 355.438 125.281 349.469C113.406 343.531 108.594 329.125 114.531 317.266L186.531 173.266C194.656 157.016 221.344 157.016 229.469 173.266L301.469 317.266C307.406 329.125 302.594 343.531 290.719 349.469ZM464 328C464 341.25 453.25 352 440 352C433.293 352 427.26 349.219 422.904 344.779C413.508 349.273 403.111 352 392 352C352.236 352 320 319.764 320 280S352.236 208 392 208C400.461 208 408.459 209.727 416 212.408V184C416 170.75 426.75 160 440 160S464 170.75 464 184V328ZM392 256C378.768 256 368 266.766 368 280S378.768 304 392 304C405.234 304 416 293.234 416 280S405.234 256 392 256Z" class="fa-secondary"/><path d="M440.012 160C426.762 160 416.012 170.75 416.012 184V212.408C408.471 209.727 400.473 208 392.012 208C352.248 208 320.012 240.236 320.012 280S352.248 352 392.012 352C403.123 352 413.52 349.273 422.916 344.779C427.272 349.219 433.305 352 440.012 352C453.262 352 464.012 341.25 464.012 328V184C464.012 170.75 453.262 160 440.012 160ZM392.012 304C378.78 304 368.012 293.234 368.012 280S378.78 256 392.012 256C405.246 256 416.012 266.766 416.012 280S405.246 304 392.012 304ZM229.481 173.266C221.356 157.016 194.668 157.016 186.543 173.266L114.543 317.266C108.606 329.125 113.418 343.531 125.293 349.469C137.168 355.438 151.575 350.594 157.481 338.734L166.848 320H249.176L258.543 338.734C262.762 347.141 271.231 352 280.043 352C283.637 352 287.293 351.188 290.731 349.469C302.606 343.531 307.418 329.125 301.481 317.266L229.481 173.266ZM186.848 280L208.012 237.672L229.176 280H186.848Z" class="fa-primary"/></svg>

<svg xmlns="http://www.w3.org/2000/svg" viewBox="0 0 576 512"><!--! Font Awesome Pro 6.4.0 by @fontawesome - https://fontawesome.com License - https://fontawesome.com/license (Commercial License) Copyright 2023 Fonticons, Inc. --><defs><style>.fa-secondary{opacity:.4}</style></defs><path class="fa-primary" d="M208 160c9.1 0 17.4 5.1 21.5 13.3l72 144c5.9 11.9 1.1 26.3-10.7 32.2s-26.3 1.1-32.2-10.7L253.2 328H162.8l-5.4 10.7c-5.9 11.9-20.3 16.7-32.2 10.7s-16.7-20.3-10.7-32.2l72-144c4.1-8.1 12.4-13.3 21.5-13.3zm21.2 120L208 237.7 186.8 280h42.3zM392 256a24 24 0 1 0 0 48 24 24 0 1 0 0-48zm24-43.9V184c0-13.3 10.7-24 24-24s24 10.7 24 24v96 48c0 13.3-10.7 24-24 24c-6.6 0-12.6-2.7-17-7c-9.4 4.5-19.9 7-31 7c-39.8 0-72-32.2-72-72s32.2-72 72-72c8.4 0 16.5 1.4 24 4.1z"/><path class="fa-secondary" d="M64 32C28.7 32 0 60.7 0 96V416c0 35.3 28.7 64 64 64H512c35.3 0 64-28.7 64-64V96c0-35.3-28.7-64-64-64H64zM229.5 173.3l72 144c5.9 11.9 1.1 26.3-10.7 32.2s-26.3 1.1-32.2-10.7L253.2 328H162.8l-5.4 10.7c-5.9 11.9-20.3 16.7-32.2 10.7s-16.7-20.3-10.7-32.2l72-144c4.1-8.1 12.4-13.3 21.5-13.3s17.4 5.1 21.5 13.3zM208 237.7L186.8 280h42.3L208 237.7zM392 256a24 24 0 1 0 0 48 24 24 0 1 0 0-48zm24-43.9V184c0-13.3 10.7-24 24-24s24 10.7 24 24v96 48c0 13.3-10.7 24-24 24c-6.6 0-12.6-2.7-17-7c-9.4 4.5-19.9 7-31 7c-39.8 0-72-32.2-72-72s32.2-72 72-72c8.4 0 16.5 1.4 24 4.1z"/></svg>
